X: 0
T: From Heavn On High
Z: Public Domain
L: 1/4
M: 3/4
Q: 1/4=175
V: P1 name="Staff"
%%MIDI program 1 8
V: P2 name="Staff-2"
%%MIDI program 2 8
V: P3 name="Staff-3"
%%MIDI program 3 19
V: P4 name="Staff-4"
%%MIDI program 4 54
V: P5 name="Staff-5"
%%MIDI program 5 20
V: P6 name="Staff-6"
%%MIDI program 6 52
V: P7 name="Staff-7"
%%MIDI program 7 75
V: P8 name="Staff-8"
%%MIDI program 8 39
K: C
[V: P1] z2 [FA] | [FA] G F | [A2c2] [FA] | F G [FA] | F2z |z3 |z3 |z3 |z3 |z3 |z3 |z3 |z3 |z3 |z3 |z3 |z3 |z3 |z3 |z3 |z3 |z3 |z3 |z3 |z3 |z3 |z3 |z3 |z2 [G^A] | [G^A] [F=A] G | [FA] [G^A] [=Ac] | [F2A2] G | F2z |z3 |z3 |z3 |z3 | c3 | A3 | c3 | A3 |z3 |z3 |z3 |z3 |z3 |z3 |z3 |z3 |z3 |z3 |z3 |z3 |z3 |z3 |z3 |z2 [G^A] | [G^A^a] [F=A=a] [Gg] | [FAa] [^A^a] [cc'] | [A2a2] [Gg] | [F2f2]z | A G F | c2 A | F G A | F3 | [G3c3] | [F3A3] | c3 | [F3A3] | F G A | c ^A =A | F2z | F2 [cc'] | [c2c'2] [^A^a] | [A2a2] [dd'] | [cc'] [^A^a] [=A=a] | [G2g2] c | G A ^A | c2 F | F2z | F2 ^A | ^A =A G | A ^A c | A2 G | F2 [G^A] | [G^A] [F=A] G | [FA] [G^A] [=Ac] | [F2A2] G | F2z |z3 |z3 |z3 |z3 |z3 |z3 |z3 |z3 |z3 |z3 |z3 |z3 |z3 |z3 |z3 |z3 |z3 |z3 |z3 |z3 |z3 |z3 |z3 |z2 [G^A] | [G^A] [F=A] G | [FA] [G^A] [F=Ac] | [F2A2] G | F2z | A G F | c2 A | F G A | F3 | c3 | A3 | c3 | A3 | F G A | c ^A =A | F2z | F2 c | c2 ^A | A2 d | c ^A =A | G2 c | G [FA] [G^A] | [A2c2] F | F2z | F2 ^A | ^A [F=A] G | [FA] [G^A] [=Ac] | A2 G | F2 [G^A] | [G^A] [F=A] G | [FA] [G^A] [=Ac] | [F2A2] G | F3|]
[V: P2] z3 |z E D |z3 | D Ez | D2z |z3 |z3 |z3 |z3 |z3 |z3 |z3 |z3 |z3 |z3 |z3 |z3 |z3 |z3 |z3 |z3 |z3 |z3 |z3 |z3 |z3 |z3 |z3 |z3 |z2 E |z3 |z2 E | D2z |z3 |z3 |z3 |z3 |z3 |z3 |z3 |z3 |z3 |z3 |z3 |z3 |z3 |z3 |z3 |z3 |z3 |z3 |z3 |z3 |z3 |z3 |z3 |z3 |z2 E | Cz C | C2z | C2z |z3 |z3 |z3 |z3 |z3 |z3 | E3 |z3 |z3 |z3 |z2 E |z3 |z3 |z3 |z3 |z3 |z3 |z3 |z2 E |z3 |z3 |z3 |z3 |z2 ^A, | ^A, =A, [G,E] | A, ^A, C | A,2 [G,E] | [F,2D2]z |z3 |z3 |z3 |z3 |z3 |z3 |z3 |z3 |z3 |z3 |z3 |z3 |z3 |z3 |z3 |z3 |z3 |z3 |z3 |z3 |z3 |z3 |z3 |z3 |z D [CE] | Dz2 |z2 E | C2z |z3 |z3 |z3 |z3 |z3 |z3 |z3 |z3 |z3 |z3 |z2 E |z3 |z3 |z3 |z3 |z2 E | Ez2 |z2 D | D2 [CE] | [A,2C2] E | Ez E |z3 | C2 [^A,E] | A,2 ^A, | ^A,z E |z3 | C2 [CE] | C3|]
[V: P3] z3 |z3 |z3 |z3 |z3 |z3 |z3 |z3 |z3 |z3 |z3 |z3 |z3 |z3 |z3 |z3 |z3 |z3 |z3 |z3 |z3 |z3 |z3 |z3 |z3 |z3 |z3 |z3 |z3 |z3 |z3 |z3 |z3 |z3 |z3 |z3 |z3 |z3 |z3 |z3 |z3 |z3 |z3 |z3 |z3 |z3 |z3 |z3 |z3 |z3 |z3 |z3 |z3 |z3 |z3 |z3 |z3 |z3 |z3 |z3 |z3 |z3 |z3 |z3 |z3 |z3 |z3 |z3 |z3 |z3 |z3 |z3 |z2 c' | c'2 ^a | a2 d' | c' ^a =a | g2z |z3 |z3 |z3 |z3 |z3 |z3 |z3 |z3 |z3 |z3 |z3 |z3 | A G F | c2 A | F G A | F3 | c3 | A3 | c3 | A3 | F G A | c ^A =A | F2 E | F2 c | [A2c2] [G^A] | [F2A2] [^Ad] | [Ac] [G^A] [F=A] | [E2G2] [Ac] | [EG] [FA] [G^A] | [F2c2] [DF] | [^A,2F2] [A,E] | [A,2F2] ^A | ^A =A G | A ^A c | A2 G | F2z |z3 |z3 |z3 |z3 | [CA] [^A,G] [CF] | [A2c2] [FA] | [DF] [EG] [FA] | [D3F3] | [F3c3] | [F3A3] | [G3c3] | [F3A3] | F G A | c ^A =A | F2 E | [C2F2] [Ac] | [A2c2] [G^A] | [F2A2] [^Ad] | [Ac] [G^A] [F=A] | [E2G2] [Ec] | [EG] [FA] [G^A] | [A2c2] [DF] | [D2F2] [CE] | [A,2C2F2] [E^A] | [E^A] [F=A] [EG] | [FA] [G^A] [=Ac] | [C2A2] [^A,EG] | [A,2F2]z |z3 |z3 |z3 |z3|]
[V: P4] z3 |z3 |z3 |z3 |z2 A | A G F | c2 A | F G A | F3 | c3 | A3 | c3 | A3 | F G A | c ^A =A | F2 E | F2 c | c2 ^A | A2 d | c ^A =A | G2 c | G A ^A | c2 F | F2 E | F2 ^A | ^A =A G | A ^A c | A2 G | F2z |z3 |z3 |z3 |z2 A | A G F | c2 A | F G A | F3 | c3 | A3 | c3 | A3 | F G A | c ^A =A | F2 E | F2 c | [A2c2] [G^A] | [F2A2] [^Ad] | [Ac] [G^A] [F=A] | [E2G2] [Ac] | [EG] [FA] [G^A] | [A2c2] [DF] | [^A,2F2] [CE] | [A,2F2] [G^A] | [G^A] [F=A] [^A,EG] | [FA] [G^A] [=Ac] | [F2A2] [EG] | [A,2F2]z |z3 |z3 |z3 |z2 A | A G F | c2 A | F G A | F3 | c3 | A3 | c3 | A3 | F G A | c ^A =A | F2 E | F2 c | c2 ^A | A2 d | c ^A =A | G2 c | G A ^A | c2 F | F2 E | F2 ^A | ^A =A G | A ^A c | A2 G | F2z |z3 |z3 |z3 |z2 A |z3 |z3 |z3 |z3 | c3 | A3 | c3 | A3 |z3 |z3 |z3 |z3 |z3 |z3 |z3 |z3 |z3 |z3 |z3 |z3 |z3 |z3 |z3 |z3 |z3 |z3 |z3 |z2 A | A G F | c2 A | F G A | F3 | [C3c3] | [D3A3] | c3 | A3 | F G A | c ^A =A | F2 E | F2 c | [A2c2] [G^A] | [F2A2] [^Ad] | [Ac] [G^A] [F=A] | [E2G2] [Ec] | [EG] [FA] [G^A] | [A2c2] [DF] | [D2F2] [CE] | [A,2C2F2] [E^A] | [E^A] [F=A] [EG] | [FA] [G^A] [=Ac] | [C2A2] [^A,EG] | [A,2F2] ^A | ^A =A G | A ^A c | A2 G | F3|]
[V: P5] z3 |z3 |z3 |z3 |z3 |z3 |z3 |z3 |z3 |z3 |z3 |z3 |z3 |z3 |z3 |z3 |z3 |z3 |z3 |z3 |z3 |z3 |z3 |z3 |z3 |z3 |z3 |z3 |z3 |z3 |z3 |z3 |z3 |z3 |z3 |z3 |z3 |z3 |z3 |z3 |z3 |z3 |z3 |z3 |z3 |z3 |z3 |z3 |z3 |z3 |z3 |z3 |z3 | G F ^A, | F G A | F2 E | A,2z |z3 |z3 |z3 |z3 |z3 |z3 |z3 |z3 |z3 |z3 |z3 |z3 |z3 |z3 |z3 |z3 |z3 |z3 |z3 |z3 |z3 |z3 |z3 |z3 |z3 |z3 |z3 |z3 |z3 |z3 |z3 |z3 | [C3F3] | [C3E3] | [^A,3D3] | [A,3F3] | [G3c3] | [F3A3] | [E3c3] | [F3A3] | [^A,3D3] | [C2F2] D | A, C ^A, | A,2z | E3 | F3 | D3 | E3 | [C3E3] | [C2F2] [A,F] | ^A,2 A, | A,2z | D C ^A, | [D2F2] [CF] | [C2F2] [^A,E] | [A,2F2]z |z3 |z3 |z3 |z3 | A G F | c2 A | F G A | F3 | [C3c3] | [D3A3] | [E3c3] | [F3A3] | C3 | E3 | C3 | C2 A | A2 G | F2 ^A | A G F | E2 [Ec] | [EG] [FA] [G^A] | [A2c2] [DF] | [D2F2] [CE] | [A,2C2F2] [E^A] | [E^A] [F=A] [EG] | [FA] [G^A] [=Ac] | [C2A2] [^A,EG] | [A,2F2]z |z3 |z3 |z3 |z3|]
[V: P6] z3 |z3 |z3 |z3 |z3 | [C3F3] | [C3E3] | [^A,3D3] | [A,3F3] | [G3c3] | [F3A3] | [E3c3] | [F3A3] | [^A,3D3] | [C2F2] D | A, C ^A, | A,2z | E3 | F3 | D3 | E3 | [C3E3] | [C2F2] [A,F] | ^A,2 A, | A,2z | D C ^A, | [D2F2] [CF] | [C2F2] [^A,E] | [A,2F2]z |z3 |z3 |z3 |z3 | [C3F3] | [C3E3] | [^A,3D3] | [A,3F3] | [G3c3] | [F3A3] | [E3c3] | [F3A3] | [^A,3D3] | [C2F2] D | A, C ^A, | A,2z | E3 | F3 | D3 | E3 | [C3E3] | [C2F2] [A,F] | ^A,2 A, | A,2z | D C ^A, | [D2F2] [CF] | [C2F2] [^A,E] | [A,2F2]z |z3 |z3 |z3 |z3 | [C3F3] | [C3E3] | [^A,3D3] | [A,3F3] | [G3c3] | [F3A3] | [E3c3] | [F3A3] | [^A,3D3] | [C2F2] D | A, C ^A, | A,2z | E3 | F3 | D3 | E3 | [C3E3] | [C2F2] [A,F] | ^A,2 A, | A,2z | D C ^A, | [D2F2] [CF] | [C2F2] [^A,E] | [A,2F2]z |z3 |z3 |z3 |z3 |z3 |z3 |z3 |z3 | [G3c3] | [F3A3] | [E3c3] | [F3A3] |z3 |z3 |z3 |z3 |z3 |z3 |z3 |z3 |z3 |z3 |z3 |z3 |z3 |z3 |z3 |z3 |z3 |z3 |z3 |z3 | [C3F3] | [C2A2] [FA] | [^A,3D3] | [A,3F3] | [G3c3] | [F3A3] | [E3c3] | [F3A3] | [^A,3D3] | [C2F2] D | A, C ^A, | A,2z | E3 | F3 | D3 | E3 | [C3E3] | [C2F2] [A,F] | ^A,2 A, | [A,2C2F2] [E^A] | [D^A] [F=A] [EG] | [FA] [G^A] [=Ac] | [C2F2A2] [^A,EG] | [A,2F2]z |z3 |z3 |z3 |z3|]
[V: P7] z3 |z3 |z3 |z3 |z3 | F,3 | G,3 | C,3 | C,3 | C3 | C3 | G,3 | A,3 | G,3 | F,2 F, | F,2 G, | F,2z | A,3 | D,3 | G,3 | C,3 | ^A,,3 | A,,2 D, | G,,2 C, | F,,2z | G,,3 | D,2 A,, | C,3 | C,2z |z3 |z3 |z3 |z3 | F,3 | G,3 | C,3 | C,3 | C3 | C3 | G,3 | A,3 | G,3 | F,2 F, | F,2 G, | F,2z | A,3 | D,3 | G,3 | C,3 | ^A,,3 | A,,2 D, | G,,2 C, | F,,2z | G,,3 | D,2 A,, | C,3 | C,2z |z3 |z3 |z3 |z3 | F,3 | G,3 | C,3 | C,3 | C3 | C3 | G,3 | A,3 | G,3 | F,2 F, | F,2 G, | F,2z | A,3 | D,3 | G,3 | C,3 | ^A,,3 | A,,2 D, | G,,2 C, | F,,2z | G,,3 | D,2 A,, | C,3 | C,2z |z3 |z3 |z3 |z3 | F,3 | G,3 | C,3 | C,3 | C3 | C3 | G,3 | A,3 | G,3 | F,2 F, | F,2 G, | F,2z | A,3 | D,3 | G,3 | C,3 | ^A,,3 | A,,2 D, | G,,2 C, | F,,2z | G,,3 | D,2 A,, | C,3 | C,2z |z3 |z3 |z3 |z3 | F,3 | A,3 | C,3 | C,3 | A,, F, A, | B,, F, A, | C, G, C | F, A, C | G,3 | F,2 F, | F,2 G, | F,2z |z C C |z C, C, |z C/C/ C |z C, C | C2 C | C2 D, | G,,2 C, | F,2z |z2 C,/C/ | F, F,/G,/ A,/^A,/ | C,2 C, | [C,2F,2]z |z3 |z3 |z3 |z3|]
[V: P8] z3 |z3 |z3 |z3 |z3 | F,,3 | A,,3 | C,,3 | F,,3 | E,3 | F,3 | A,,3 | D,3 | G,,3 | A,,2 ^A,, | C,2 C, | F,,2z | A,3 | D,3 | G,3 | C,3 | ^A,,3 | A,,2 D, | G,,2 C, | F,,2z | G,,3 | D,2 A,, | C,,3 | F,,2z |z3 |z3 |z3 |z3 | F,,3 | A,,3 | C,,3 | F,,3 | E,3 | F,3 | A,,3 | D,3 | G,,3 | A,,2 ^A,, | C,2 C, | F,,2z | A,3 | D,3 | G,3 | C,3 | ^A,,3 | A,,2 D, | G,,2 C, | F,,2z | G,,3 | D,2 A,, | C,,3 | F,,2z |z3 |z3 |z3 |z3 | F,,3 | A,,3 | C,,3 | F,,3 | E,3 | F,3 | A,,3 | D,3 | G,,3 | A,,2 ^A,, | C,2 C, | F,,2z | A,3 | D,3 | G,3 | C,3 | ^A,,3 | A,,2 D, | G,,2 C, | F,,2z | G,,3 | D,2 A,, | C,,3 | F,,2z |z3 |z3 |z3 |z3 | F,,3 | A,,3 | C,,3 | F,,3 | E,3 | F,3 | A,,3 | D,3 | G,,3 | A,,2 ^A,, | C,2 C, | F,,2z | A,3 | D,3 | G,3 | C,3 | ^A,,3 | A,,2 D, | G,,2 C, | F,,2z | G,,3 | D,2 A,, | C,,3 | F,,2z |z3 |z3 |z3 |z3 | F,,3 | F, E, D, | C,,3 | D, C, ^A,, | A,, F, A, | B,, F, A, | C, G, C | F, A, C | G,,3 | A,,2 ^A,, | C,2 C, | F,,2z |z C C |z C, C, |z C/C/ C |z C, C, | C,2 E, | F,2 D, | G,,2 C, | F,,2z |z2 C,/C/ | F, F,/G,/ A,/^A,/ | C,,2 C, | F,,2z |z3 |z3 |z3 |z3|]

